packages/components/src/telekom/icons/weather/moon-clear/selected.svg

<?xml version="1.0" encoding="UTF-8"?>
<svg width="24px" height="24px" viewBox="0 0 24 24" version="1.1" xmlns="http://www.w3.org/2000/svg" xmlns:xlink="http://www.w3.org/1999/xlink">
    <title>icon/weather/moon-clear/selected</title>
    <g id="icon/weather/moon-clear/selected" stroke="none" stroke-width="1" fill="none" fill-rule="evenodd">
        <path d="M15.969,17.4415 C15.3205,17.1905 12.647,16.0945 11.4165,12.8735 C9.885,8.8635 12.0265,5.669 13.17,4.5035 C13.18,4.493 13.1915,4.484 13.2015,4.474 C13.825,3.8455 14.5575,3.315 15.3825,2.9185 C15.38,2.918 15.378,2.9175 15.3755,2.917 C13.866,2.558 12.2895,2.5845 10.8165,2.971 C7.6735,3.7965 5.321,6.1165 4.321,8.968 C3.7215,10.6785 3.607,12.58 4.103,14.467 C4.701,16.7445 6.1625,18.8035 8.323,20.1155 C10.1855,21.246 12.363,21.7125 14.568,21.3875 C16.8125,21.057 18.7735,19.9725 20.2235,18.3425 C20.3935,18.1515 20.555,17.9545 20.7085,17.751 C19.1855,18.1245 17.5235,18.0425 15.969,17.4415 Z" id="Path" fill="#262626" fill-rule="nonzero"></path>
    </g>
</svg>

<svg width="24" height="24" xmlns="http://www.w3.org/2000/svg"><path d="M15.969 17.442c-.649-.252-3.322-1.348-4.553-4.569-1.531-4.01.61-7.204 1.754-8.37l.031-.029a7.877 7.877 0 012.181-1.556l-.006-.001A9.404 9.404 0 004.32 8.968a9.368 9.368 0 00-.218 5.499 9.398 9.398 0 004.22 5.649 9.339 9.339 0 006.245 1.271 9.327 9.327 0 006.14-3.636 7.93 7.93 0 01-4.739-.31z" fill="#000" fill-rule="evenodd"/></svg>
